X:573
T:Miss Muir MacKenzie
R:Strathspey
B:The Athole Collection
M:C
L:1/8
K:E
g|e>B e<g e>B e<g|f>eg>e c2 c<f|e>B e<g e>B e<g|e>cB>G E2 E>g|
ef e>cB>c|B<G F>G E2E||B|
G>BE>g f>ef>g|e>cB>G F2 F>B|G>BE>g f>ef>g|e>cB>G E2 E>B|
G>BE>g f>ef>g|e>cB>G F2 F>B|G>BE>g e<a g>f|e>cB>G E2E||
